packages/ui-icons/svg/Solid/not-graded.svg

<svg viewBox="0 0 1920 1920" version="1.1" xmlns="http://www.w3.org/2000/svg">
    <path d="M1468.23529,1355.29412 L1581.17647,1355.29412 L1581.17647,1016.47059 L1468.23529,1016.47059 L1468.23529,1355.29412 Z M1468.23529,1581.17647 L1581.17647,1581.17647 L1581.17647,1468.23529 L1468.23529,1468.23529 L1468.23529,1581.17647 Z M1524.70588,903.529412 C1742.68235,903.529412 1920,1080.84706 1920,1298.82353 C1920,1516.8 1742.68235,1694.11765 1524.70588,1694.11765 C1306.72941,1694.11765 1129.41176,1516.8 1129.41176,1298.82353 C1129.41176,1080.84706 1306.72941,903.529412 1524.70588,903.529412 Z M677.647059,1242.35294 L677.647059,1355.29412 L338.823529,1355.29412 L338.823529,1242.35294 L677.647059,1242.35294 Z M903.529412,1016.47059 L903.529412,1129.41176 L338.823529,1129.41176 L338.823529,1016.47059 L903.529412,1016.47059 Z M1129.41176,338.823529 L1129.41176,790.588235 L338.823529,790.588235 L338.823529,338.823529 L1129.41176,338.823529 Z M1016.47059,1298.82353 C1016.47059,1037.92941 1214.79529,824.809412 1468.23529,796.348235 L1468.23529,0 L0,0 L0,1920 L1468.23529,1920 L1468.23529,1801.29882 C1214.79529,1772.83765 1016.47059,1559.71765 1016.47059,1298.82353 L1016.47059,1298.82353 Z" stroke="none" stroke-width="1" fill-rule="evenodd"/>
</svg>

<svg viewBox="0 0 1920 1920" xmlns="http://www.w3.org/2000/svg">
    <path d="M1468.235 1355.294h112.941v-338.823h-112.94v338.823Zm0 225.882h112.941v-112.94h-112.94v112.94Zm56.47-677.647c217.977 0 395.295 177.318 395.295 395.295 0 217.976-177.318 395.294-395.294 395.294-217.977 0-395.294-177.318-395.294-395.294 0-217.977 177.317-395.295 395.294-395.295Zm-847.058 338.824v112.941H338.824v-112.941h338.823ZM903.53 1016.47v112.94H338.824v-112.94h564.705Zm225.883-677.647v451.764H338.824V338.824h790.588Zm-112.941 960c0-260.895 198.324-474.015 451.764-502.476V0H0v1920h1468.235v-118.701c-253.44-28.461-451.764-241.581-451.764-502.475Z" fill-rule="evenodd"/>
</svg>
